flags/language/non.svg

<svg width="512" height="512" viewBox="0 0 512 512" fill="none" xmlns="http://www.w3.org/2000/svg">
<rect width="512" height="512" fill="var(--flag-palette-white, #eeeeee)"/>
<path fill-rule="evenodd" clip-rule="evenodd" d="M383 0C383 211.525 211.525 383 0 383V415C50.6127 415 99.1091 405.94 143.956 389.352L181.151 479.149L210.715 466.904L173.515 377.095C213.485 358.673 250.025 334.084 281.918 304.547L350.724 373.353L373.351 350.725L304.546 281.919C334.083 250.027 358.673 213.486 377.095 173.516L466.902 210.716L479.148 181.152L389.352 143.957C405.939 99.1099 415 50.6131 415 0H383ZM164.201 126.201C169.452 120.95 176.574 118 184 118C191.426 118 198.548 120.95 203.799 126.201C209.05 131.452 212 138.574 212 146H296C296 153.426 293.05 160.548 287.799 165.799C282.548 171.05 275.426 174 268 174C268 181.426 265.05 188.548 259.799 193.799C254.548 199.05 247.426 202 240 202C240 205.677 239.276 209.318 237.869 212.715C236.461 216.112 234.399 219.199 231.799 221.799C229.199 224.399 226.112 226.461 222.715 227.869C219.318 229.276 215.677 230 212 230H156C152.323 230 148.682 229.276 145.285 227.869C141.888 226.461 138.801 224.399 136.201 221.799C133.601 219.199 131.539 216.112 130.131 212.715C128.724 209.318 128 205.677 128 202C120.574 202 113.452 199.05 108.201 193.799C102.95 188.548 100 181.426 100 174C92.5739 174 85.452 171.05 80.201 165.799C74.95 160.548 72 153.426 72 146H156C156 138.574 158.95 131.452 164.201 126.201Z" fill="var(--flag-palette-black, #333333)"/>
<path d="M0 0V512H32V32H512V0H0Z" fill="var(--flag-palette-black, #333333)"/>
</svg>

<svg xmlns="http://www.w3.org/2000/svg" width="512" height="512" fill="none"><path fill="var(--flag-palette-white, #eeeeee)" d="M0 0h512v512H0z"/><path fill="var(--flag-palette-black, #333333)" fill-rule="evenodd" d="M383 0A383 383 0 0 1 0 383v32c50.6 0 99.1-9 144-25.6l37.2 89.7 29.5-12.2-37.2-89.8c40-18.4 76.5-43 108.4-72.6l68.8 68.9 22.7-22.7-68.9-68.8a416 416 0 0 0 72.6-108.4l89.8 37.2 12.2-29.5-89.7-37.2A414 414 0 0 0 415 0zM164.2 126.2A28 28 0 0 1 212 146h84a28 28 0 0 1-28 28 28 28 0 0 1-28 28 28 28 0 0 1-28 28h-56a28 28 0 0 1-28-28 28 28 0 0 1-28-28 28 28 0 0 1-28-28h84a28 28 0 0 1 8.2-19.8" clip-rule="evenodd"/><path fill="var(--flag-palette-black, #333333)" d="M0 0v512h32V32h480V0z"/></svg>
